/*
Song Name: Overture
Song Origin: Dragon Quest (NES)
MML Artist: Komodo
https://archeagemmllibrary.com/dragon-quest-overture/
*/
MML@c8l16rV70fV60l8fcccV70<aV60>cfgfcV70fV60gaa+>d<a+V70aV60gfcl16rcc8V70f8rV60fl8ff<a>fV70l4c&c8&c32.rr16r64V60a+8.a+16V70aV60>cffV80>cV70f2e8.d16<a+.V60a8V70O2FO5V60g+8b8V70aV60f2<<a8.V70a16V80>c+V60c+deV70f2<fV60>g8a8V70>d2<<gV60>b8>d8V70dV60c<a+a+V70>c+2l8&c+V60c+c+c+V70d2V60<a4a4V70>d2&dV60<bbbV70a+2V60a+4a+4V70>f+2&f+V60f+gaV70a+2&a+V60O4A+O5cdV70l2dV60e<a.a+8.a+16V70l4aV60>cffV80>cV70f2e8.d16<a+.V60a8V70O2FO5V60g+8b8V70aV60f2<<a8.V70a16V80>c+V60c+deV70f2<fV60>g8a8V70>d2<<gV60>b8>d8V70dV60c<a+a+V70>c+2l8&c+V60c+c+c+V70d2V60<a4a4V70>d2&dV60<bbbV70a+2V60a+4a+4V70>f+2&f+V60f+gaV70a+2&a+V60O4A+O5cdV70l2dV60e<a.,L4O4V100<f8r1r1r1r1r2r8fV70ed+dV80<arV70a+rV80>fV70cr8V80>>b8V70<<fV80fV70<a>cfV80<arV70arV80>dV70<ar8V80o5d8V70<<dV80c-V70dr8V80>>d8V70o2gV80>crV70ceV80<aV70>c+e<aV80>dV70efdV80c-V70dg<gV80>cV70cga+V80aV70f+d<aV80gV70aa+gV80>gV70ca+cV80fV70cfrV80fV70ed+dV80<arV70a+rV80>fV70cr8V80>>b8V70<<fV80fV70<a>cfV80<arV70arV80>dV70<ar8V80o5d8V70<<dV80c-V70dr8V80>>d8V70o2gV80>crV70ceV80<aV70>c+e<aV80>dV70efdV80c-V70dg<gV80>cV70cga+V80aV70f+d<aV80gV70aa+gV80>gV70ca+cV80fV70cf,L4O4V100V70a8l16raV80l8agV70gV80gfgaa+agaa+>cdfdc<a+agl16rV70gV80g8a8rV70al8aV80afal4g&g8&g32.rr16r64>c8.c16fgaa+V70f1V80>d.l8crV60<g+V80b>dc4<a2<a.V70a16l4aV80ab>c+d2l8rV60<fV80>efg2rV60c-V80dfl4fedca2l8&aa+agf2d4f4g2&gagff2e4c4>c2&c<aa+>cd2&d<defl2a+af.c8.V70c16V80l4fgaa+V70f1V80>d.l8crV60<g+V80b>dc4<a2<a.V70a16l4aV80ab>c+d2l8rV60<fV80>efg2rV60c-V80dfl4fedca2l8&aa+agf2d4f4g2&gagff2e4c4>c2&c<aa+>cd2&d<defl2a+af.;