/*
Song Name: Let it Go
Song Origin: Frozen
MML Artist: tanino [Alexina]
https://mabinogimusic.tumblr.com/post/74954278197/taninogi-song-preview-played-on-piano-actual
*/
MML@v15<f8>c8fgg+<c+8g+8>c+d+f<d+8a+8>d+fgl8«a+>fa+>cc+n46c+f<f>cl4fgg+<c+8g+8>c+d+f<d+8a+8>d+fgl8«a+>fa+>cd2l4.«fb+f4c+g+c+4d+a+d+4<a+4>f4a+2fb+f4c+g+c+4d+a+d+4l8n22fa+>cdn34df<f>cl4fg+f<c+8f8g+n37g+d+8g8a+n39a+l8n22fa+>cc+n34c+d+l1f<a+a+&a+l8<d+a+>d+g4.>d+4<d+a+>d+g4.d+4«c+g+>c+f4.>c+4<c+g+>c+f4.c+4«d+a+>d+g4.>d+4<d+a+>d+l4g.d+<c+c+c+c+c+c+c+c+c+c+c+l8c+>c+c+c+c+c+c+l1.rrrrrr2.r8l4.n32g+<g+4a+2a+8>c8c+8d+8fcd+4<c+2f8d+8f8g8>cgf+4l8f+f+f+f+f+f+f+f+g+1&g+4.r2r<g+4>d+rd+rd+r<d+4>d+rd+rd+r<f4>g+rg+rg+r<c+4>frfrfr<d+4>grgrgr«a+4»frfrfr<f4>g+rg+rg+r<d+4>grgrgrl4.n22a+a+4a+>df4l8o1d+a+>d+g4.>d+4<d+a+>d+g4.d+4«c+g+>c+f4.>c+4<c+g+>c+f4.c+4«d+a+>d+g4.>d+4<d+a+>d+l4g.d+n25g+g+g+<c+1.,v15l8>gg+cg4g+4cg+gcg+4g4n58fgn58f4g4n58d+2c+2gg+cg4g+4cg+gcg+4g4n58fgn58f4g4n58d+2d4.v12«cgg+cg4g+4cg+gcg+4g4n34fgn34f4g4n34d+2c+2gg+cg4g+4cg+gcg+4g4n34fgn34f4g4n34d+2d2>gg+cg4g+4cg+gcg+4g4n46fgn46f4g4n46l2d+c+g+1g1f>a+>fa+l4«g<a+8a+>d+d+<a+a+>ff.l8fd+ff4d+fl4gg+gg.<a+8a+>d+d+.<a+8a+>ff.d+d+d+d+d+d+d+8fg.g+l8g+g+g+g+g+g+g+r4.»v10d+n68d+n68d+n68d+n68d+<gn75gn75gn75gb+fb+fb+fb+fn73fn73fn73fn73fn75g+n75g+n75g+n75g+a+d+a+d+a+d+a+d+b+fb+fb+fb+fn73fn73fn73fn73fv12l4.d+c<a+2.g+4g+4>d+c<g+2.r4g+8g+8gd+d+4l8d+d+d+d+d+d+d+d+>c+1&c+4.n51c+n51c+c2&ccd+g+a+2d+a+g+gg+4l1.rrrrrl4r.<g<a+8a+>d+d+<a+a+>d+f.d+8fd+fgg+a+.g<a+8a+»d+d+n58d+<a+8f+2.&f+8gg+.l8n44c+g+c+g+n61g+>c+g+>c+g+1,l1.rrrrrl4r.v15a+8>cccl8cccc<a+g+4.g+g+a+a+2g+gf1a+>cccc4.d+d+4c2&c<g+g+a+b+2a+g+a+1&a+r4>cl4cd+fd+cd+d+d+c+cl8c+c2r2.cc<a+g+4a+4.>ccl4<a+g+2f2.r1ra+8a+>d+d+<a+a+>ff.l8fd+ff4d+fl4gg+gg.<a+8a+>d+d+.<a+8a+>ff1&f2.&f8d+8fg.g+1l8rfgg+2.d+d+a+2.&a+g+4fff4fg4g+2.fgg+2.d+>cc4<a+2g+a+>c4.cc+4.c<a+a+g+2.&g+l4.>d+c<a+2.g+4g+4>d+8d+4c<g+2.r4g+8g+8gd+d+1l8&d+n56c+4c+cc+cc+c+c<g+4r1r1.r4g+>cccl4cc<g+2&g+8g+>d+d+8c+c<a+2.&a+8g+8a+8>cc8cd+fd+2&d+8d+g+g+8gff2&f8r2.<a+8a+>d+d+<a+a+>d+f.d+8fd+fgg+a+.d+<a+8a+>d+;