/*
Song Name: Title
Song Origin: Mega Man 2 (NES)
MML Artist: Naju
https://archeagemmllibrary.com/mega-man-2-title/
*/
t180v127l8cc16c16cc16c16cd4<a+1a+g+4g+f4f4g2gg+a+r4>cc16c16cc16c16cd4<a+1a+g+4g+a+ra+rb+2r>>g16f16e16d16c16<b16a16g16cc16c16cc16c16cd4<a+1a+g+4g+f4f4g2gg+a+r4>cc16c16cc16c16cd4<a+1a+g+4g+a+ra+rb+1
