/*
Song Name: Quick Man Stage
Song Origin: Mega Man 2 (NES)
MML Artist: Rosa Records
https://archeagemmllibrary.com/mega-man-2-quick-man/
*/
MML@t139v100g8>c16<d+8>c16r8.c8<g16d+8>c8<g8>c16<d+8>c16r8.c8<g16d+8>c8<f8a+16d8a+16r8.a+8f16d8a+8f8a+16d8a+16r8.a+8f16d8a+8g8>c16<d+8>c16r8.c8<g16d+8>c8<g8>c16<d+8>c16r8.c8<g16d+8>c8<f8a+16d8a+16r8.a+8f16d8a+8<a+16>c16d16f16r16a+16>d16f16r2v60<g8>c16<d+8>c16r8.c8<g16d+8>c8<g8>c16<d+8>c16r8.c8<g16d+8>c8<f8a+16d8a+16r8.a+8f16d8a+8f8a+16d8a+16r8.a+8f16d8a+8g8>c16<d+8>c16r8.c8<g16d+8>c8<g8>c16<d+8>c16r8.c8<g16d+8>c8<f8a+16d8a+16r8.a+8f16d8a+8f8a+16d8a+16r8.a+8f16d8a+8v90d+4.&d+16.r32d+8f8.&f32.r64g+8g4.&g16.r32d+8.&d+32.r64g8.&g32.r64g4.&g16.r32g8b8.&b32.r64>d8c4.&c16.r32c8d8c8<a+8f4.&f16.r32f8d+8c+8.&c+32.r64g4.&g16.r32g8f8d+8.&d+32.r64>c16f16c16<g+16>c16v100f16c16<g+16>c16f16c16<g+16>c16f16v110c16<g+16g+8.&g+32.r64g+8&g+32.r64g+16r16g+16g+16r16g+16r16g16a+16,v90<c8<g8>c8c16c16r16c16<g8g8a+8>c8<g8>c8c16c16r16c16<g8g8a+8a+8f8a+8a+16a+16r16a+16f8f8a+8a+8f8a+8a+16a+16r16a+16f8f8a+8>c8<g8>c8c16c16r16c16<g8g8a+8>c8<g8>c8c16c16r16c16<g8g8a+8a+8f8a+8a+16a+16r16a+16f8f8a+8r1v60>c8<g8>c8c16c16r16c16<g8g8a+8>c8<g8>c8c16c16r16c16<g8g8a+8a+8f8a+8a+16a+16r16a+16f8f8a+8a+8f8a+8a+16a+16r16a+16f8f8a+8>c8<g8>c8c16c16r16c16<g8g8a+8>c8<g8>c8c16c16r16c16<g8g8a+8a+8f8a+8a+16a+16r16a+16f8f8a+8a+8f8a+8a+16a+16r16a+16f8f8a+8v90g+16g+16r16g+16>c8g+16d+16r16<g+16>c16<g+16>g+8d+16c16<a+16a+16r16a+16>d8a+16f16r16<a+16>d16<a+16>a+8f16d16<b16b16r16b16>d8b16g16r16<b16>d16<b16>b8g16<b16>c16c16r16c16d+8>c16<g16r16c16d+16c16>c8<g16d+16<c+16c+16r16c+16f8g+16f16r16g+16f16c+16>c+8<g+16f16d+16d+16r16d+16g8a+16g16r16>d+16<a+16g16>d+8<a+16g16f8r16f16g+8v100>f16c16r16f16c16<g+16>f8v110c16<g+16>f8.&f32.r64f8&f32.r64f16r16f16f16r16f16r16a+16b16,r1r1r1r1r1r1r1r2.v90a+8b8>c1&c4.&c32.r16r64d8d+8.&d+32.r64f8d8d+8.&d+32.r64d8c4.&c16.r32d32c32<a+4.&a+32.r64a+8.&a+32.r64b8.&b32.r64>c1&c4.&c32.r16r64d8d+8.&d+32.r64f8g4.&g16.r32>g16f16d+16f16d+16d16d+16d16c16d16c16<a+16>c16<a+16g+16a+16g+16g16g+16g16f16g16f16d+16r1r1r1r1r1r1r1r1;