/*
Song Name: Needle Man Stage
Song Origin: Mega Man 3 (NES)
MML Artist: Unknown
https://mabinogimusic.tumblr.com/post/36886776342/unknown-needle-mans-stage
*/
//Melody
t143l16rv15o2a+l8>c+d+c+d+c+16d+4<a+a+16>c+d+c+d+l16c+d+8ed+c+8n34l8c+
d+c+d+c+16d+4<a+a+16>c+d+c+d+l16c+d+8ed+c+8n34l8c+d+c+d+c+16d+4<a+a+16>
c+d+c+d+l16c+d+8ed+c+8n34l8c+d+c+d+c+16d+4<a+a+16>c+d+c+d+l16c+d+8ed+
c+8n34l8c+d+c+d+c+16d+4<a+a+16>c+d+c+d+l16c+d+8ed+c+8.<a+g+fg+fd+c+d+c+d+fg+a+g+a+1l8a+fg+a16a+a+16fg+aa+fg+a16a+a+16fg+aa+f
g+a16a+a+16fg+affa+f16fg+16a+g+afc+d+c+16ff16c+d+fg+ff+f16g+g+16ff+ffaa+>c+f
gg+b+l4<fffg+l8a+fg+a16a+a+16fg+aa+fg+a16a+a+16fg+aa+fg+a16a+a+16fg+affa+f16
fg+16a+g+afc+d+c+16ff16c+d+fg+ff+f16g+g+16ff+ffaa+>c+fgg+b+l4fffg+<f+8l16f+f+l8f+d+fn49a+n37f+f+16f+16f+d+fn49a+n37ff16f16fffg+f>b.b16ba+a+g+g+
f+f<f+f+16f+16f+d+fn49a+n37f+f+16f+16f+d+fn49a+n37ff16f16g+fa+fb+fl4>ffffl16&fa+
a+8a+8g+l8a+.ff+4a+>fn44fn42f+<f>f.<a+16a+a+g+16a+.ff+4a+>fn44fn42f+<f>fl4<a+a+aag+g+f+f+f1&f16ffl8f.fg+a+2,

//Harmony 1
l1rrrrv11l8a+fg+a16a+a+16fg+aa+fg+a16a+a+16fg+aa+fg+a16a+a+16fg+aa+fg+a16
a+a+16fg+aa+fg+a16a+a+16fg+aa+fg+l16aa+8a+f8g+8a4a+g+fg+fd+c+d+c+d+fg+>
c+d+f1a+8c+8f8c+a+8a+l8c+fc+a+c+fc+16a+a+16c+fc+fn58c+<a+16>ff16n58c+n58fn58c+<a+16>ff16n58c+n58fc+d+c+16ff16c+d+c+fn58c+<a+16>ff16<a+g+a+>aff+f16aa16ff+fa1a+c+fc+16a+a+16c+fc+a+c+fc+16a+a+16
c+fc+fn58c+<a+16>ff16n58c+n58fn58c+<a+16>ff16n58c+n58fc+d+c+16ff16c+d+c+fn58c+<a+16>ff16<a+g+a+>aff+f16aa16ff+f<a2l1>c&c&c&c&c&c&c&c&c&c2l8&ca+g+fg+
fd+&d+32f1&f.&f32a+g+a+>c+c<a+g+1&g+4>c+cn70c<a+g+4f1&ff4f4ffg+a+2,

//Harmony 2
l1rrrrv15o6c2.l8&cn70c+1c2.&cn70c+1c2.&cn70c+1&c+1&c+2&c+16l32<<a+>cc+d+
16fg+a+16>cc+f16a8&al8<<a+g+fg+4a+4.a+g+a+>c+c<a+g+f1&f2<f+g+a+>cd+4.
fc+1d+c+cc+f1>f2&fl32&fd+c+c<a+g+f+fd+c+c<a+8&a+l8>a+g+fg+4a+4.a+g+a+
>c+c<a+g+f2&ff16f+16g+d+f2c+4d+4f2&fd+4c+l2d+c+4d+4fa>cd+l8&d+<ff+a+>c+&c+32f.&f32<f+4ff+a+>c+f4d+4c<g+1&g+2&g+f+4ff+a+>c+&c+32f.&f32
<f+4ff+a+>c+f4g+4d+f1&f2.&ffd+c+d+c+c&c32<a+1&a+.&a+32>fd+c+d+c+c&c32
<a+1&a+.&a+32>fd+c+d+c+c4<a+4g+fg+fd+4f1&f8;
