/*
Song Name: Blizzard Man Stage
Song Origin: Mega Man 6 (NES)
MML Artist: Yuko Takehara
https://mabinogimusic.tumblr.com/tagged/megaman
*/
MML@v15o2rr.g8b-8>d8g2fgg8aafc8l8<ab->c<a>dc<bag2rfb->dg2f4g4ga4a4f4c<ab>c<ab>c<ba>egb-g>d<b-ga+dfaf>c<afacefe>c<gegcege>c<gece-gb-g>d<b-gb-dfaf>c<afacege>c<gegec<gl16cdefga-b>cl8<b-rr->dfd<bfg+e-g+>ce-c<g+e-g+dg+ab->dg+b-»cd4d&d2«<rb-fb->dfd<bfg+e-g+>ce-c<g+f-af+a>df+d<af+ab->cdl16ef+gab>cdf<8g4.gal8b-agdf4.f16g16agfce-4.e-16f16gfegfcfa&aafab-ge-gb-l16e-fgfl8e-afcfal16cde-dl8cgd<b->dgd<b->d<gl16ab->cdef+gab->cdef+g,v10o2l8ggggggggggggggggffffffffffffffffggggggggggggggggffffffffffffffffe-e-e-e-4b->e-<fdddd4a>d<dcccc4g>c<ccccc4g>c<de-e-e-e-4b->e-<e-dddd4a>d<dcccc4g>c<ccccc4rrrb-b-b-b-b-b-b-b-g+g+g+g+g+g+g+g+g+g+g+g+g+g+g+g+gggggg+b-g+b-b-b-b-b-b-b-b-g+g+g+g+g+g+g+g+ddddddddddddddef+ggggggggffffffffe-e-e-e-e-e-e-e-dddddddde-e-e-e-e-e-e-e-ffffffffgggggggggggggggg,t157v15o3g8rb-8r>d8rf.ede8ffc<a&a.gfg8rb-8r>d8rf.ede8ffca&a.gfg&g.b-g8affdf8ggf8e8d8e2c2g&g.b-g8a>c<aff8gg&g&g.cdcf2e-8de-.dc<b->c8dd2&d.<b->de-f2e-8de-.e-fgg8aa8&a1b-al8b-ab->c&c<b-a4b-ab->c&c<b-aa16>c16l4dc<b-ag.ff8d8f8g&g.fg8g&g.fg8g1&g1;