/*
Song Name: Unknown
Song Origin: Unknown (Dragon Quest?)
MML Artist: Unknown
*/
MML@l8<bab>d4<ab>e<bab>f+4<babbab>d4<ab>e<bab>d4<babbab>d4<ab>e<bab>f+4<babbab>d4<ab>a4<bab>d<babbab>d4<ab>e<bab>f+4<babbab>d4<ab>a4<bab>d<babb1&b2&bbbbr4.v15b>f+4f+e2c-f+4f+e2c+c+4c+d4c+4c+c+<bb4r4.b>f+4f+e2<aaaa4r2reab1&br4.b>f+4f+e2c-f+4f+e2c+c+4c+d4c+4c+c+<bb4r2>f+f+4e4.<aaa4aa2.en49l4b.>bbbb>bbbaaf+2<a>aaag+g+e2f+8.e16f+8.e16f+c-rf+8.e16f+c-f+8.e16f+8.e16f+<brb8.b16b>dl8rf+16e.de4c-4rf+16e.de4<a4r>aaaa4g+4rg+g+g+g+4f+4rf+16e.de4c-4rf+16e.de4<a4r>aaaa4g+4rg+g+g+g+4f+4r4.<c-f+f+4e2&ef+f+4e2&ec+.c+16c+.c+16d4c+4c+4<bb2b>f+4f+e2<aa4aar2ren49b4en49b4r2.b>f+4f+e2c-f+4f+e2c+c+4c+d4c+4c+c+<bb4r2>f+f+4e4.<aaa4aa2.en49l4b.>bbbb>bbbaaf+2<a>aaag+g+e2f+8.e16f+8.e16f+c-rf+8.e16f+c-f+8.e16f+8.e16f+<brb8.b16b>dl8rf+16e.de4c-4rf+16e.de4<a4r>aaaa4g+4rg+g+g+g+4f+1,v14l1<c-d<a>ec-2d4l8<bf+>d2f+4d<aa2>c+4<ae>e2g+4e<bb2>d4<bf+>d2f+4d<aa2>c+4<ae>e2g+4e<bb1&b2&bbbbl4bb>d2ddf+2<aa>c+2eeg+2<bb>d2ddf+2<a1>e2l8&eeeel4<bb>d<b8f+8>ddf+d8<a8aan37a8e8>eeg+e8<b8bb>d<b8f+8>ddf+d8<a8aan37a8e8>e2g+bc-2b>d<d2f+d8<a8a2>an49e2g+e8<b8b.>d8f+bd.f+8a>d«a.>c+8eae2g+bc-.d8f+dd.f+8af+<a2>c+ee2g+bc-.d8f+dd.f+8af+<a2>c+ee8r2.r8<bb>d2ddf+2<aa>c+2eeg+2<bb>d2ddf+2<a1,l1.rrrrrrrrrrrrrrrrrrrrrrrrrrrrrrrrrrrr2v14<e2l8&eeeel4<bb>d<b8f+8>ddf+d8<a8aan37a8e8>eeg+e8<b8bb>d<b8f+8>ddf+d8<a8aan37a8e8>e2g+bc-2b>d<d2f+d8<a8a2>an49e2g+e8<b8b.>d8f+bd.f+8a>d«a.>c+8eae2g+bc-.d8f+;
