/*
Song Name: Wrecking Ball
Song Origin: Miley Cyrus
MML Artist: tanino
https://mabinogimusic.tumblr.com/post/82867805435/who-asked-to-be-wrecked
*/
MML@v15t120l8ffffffffcccccccceeeeedefddddddddffffffffcccccccceeeeedefdddddd>a<d>d<f>a<f>d<f>a<fb+c>a<cb+c>ce<eee>dedef<d>d<dddd>a<d>d<f>a<f>d<f>a<fb+c>a<cb+c>ce<eee>dedef<d>d<dddddd>d4d4dc<ag>d4d4dc<aa+>c4c4c<a+a4f1>d4d4dc<ag>d4d4dc<aa+>c4c4c<a+a4f4.>a+4a+a+a+a+4aa4.g2&ga+agl4fa+aa.g.&g16l8fa+a.gfa+4aa1fa+agf2a+4a.g.a+4.a+agf2a+4a4&a16g.a+2a2d<f>a<f>d<f>a<fb+c>a<cb+c>ce<eee>dedef<d>d<dddd>a<d>d<f>a<f>d<f>a<fb+c>a<cb+c>ce<eee>dedef<d>d<dddddd>d4d4dc<ag>d4d4dc<aa+>c4c4c.<a+.a4f2.&f>d4d4dc<ag>d4d4dc<aa+>c4c4c.<a+.a4f4.>a+a+a+a+a+4a4a1a+agfa+4a4a4.g2fa+agfa+4.aa4.gf4a+agf2.&fg4a4a+4.a+a+a+a+a+a+4aa2.f4fa+agfa+4aa4.g4<ffffffffcccccccceeeeedefddddddddffffffffcccccccceeeeedefddddddddf1,v15r1l8<agagfgag1&ga+aa+agaa+a1&aagagfgag1&ga+aa+agaa+a1&aagagfgag1&ga+aa+agaa+a1&aagagfgag1&ga+aa+agaa+al1a+afa+a+&a+fa+l4a.<f8f>al4.cc8c2ff8f2<a+a+8a+2>ff8f2cc8c2dd8d2<a+l8a+a+1&a+1&a+1&a+2>agagfgag1&ga+aa+agaa+a1&aagagfgag1&ga+aa+agaa+al1a+afa+a+afa+<f4f2.l4.>cc2&c8dd2&d8<a+a+2&a+8f4f2.>cc2&c8d4d2.<a+a+2&a+8ff2&f8cc2l8&cd4d1&d2.>agagfgag1&ga+aa+agaa+a1&aagagfgag1&ga+aa+agaa+ad1,v15l1<d<fb+g>d<fb+g>d<fb+g>d<fb+g>fd<f>fn34a<f&f>fgaa+agaa+aa+d<fb+g>d<fb+g>fd<f&f>fd<f&f>agaa+agaa+agad<fb+g>d<fb+g>d;
